assets/img/icons/duotone-icons/Devices/LTE#1.svg

<?xml version="1.0" encoding="UTF-8"?>
<svg width="24px" height="24px" viewBox="0 0 24 24" version="1.1" xmlns="http://www.w3.org/2000/svg" xmlns:xlink="http://www.w3.org/1999/xlink">
    <!-- Generator: Sketch 52.2 (67145) - http://www.bohemiancoding.com/sketch -->
    <title>Stockholm-icons / Devices / LTE#1</title>
    <desc>Created with Sketch.</desc>
    <g id="Stockholm-icons-/-Devices-/-LTE#1" stroke="none" stroke-width="1" fill="none" fill-rule="evenodd">
        <rect id="bound" x="0" y="0" width="24" height="24"></rect>
        <path d="M15.4508979,17.4029496 L14.1784978,15.8599014 C15.324501,14.9149052 16,13.5137472 16,12 C16,10.4912085 15.3289582,9.09418404 14.1893841,8.14910121 L15.466112,6.60963188 C17.0590936,7.93073905 18,9.88958759 18,12 C18,14.1173586 17.0528606,16.0819686 15.4508979,17.4029496 Z M18.0211112,20.4681628 L16.7438102,18.929169 C18.7927036,17.2286725 20,14.7140097 20,12 C20,9.28974232 18.7960666,6.77820732 16.7520315,5.07766256 L18.031149,3.54017812 C20.5271817,5.61676443 22,8.68922234 22,12 C22,15.3153667 20.523074,18.3916375 18.0211112,20.4681628 Z M8.54910207,17.4029496 C6.94713944,16.0819686 6,14.1173586 6,12 C6,9.88958759 6.94090645,7.93073905 8.53388797,6.60963188 L9.81061588,8.14910121 C8.67104182,9.09418404 8,10.4912085 8,12 C8,13.5137472 8.67549895,14.9149052 9.82150222,15.8599014 L8.54910207,17.4029496 Z M5.9788888,20.4681628 C3.47692603,18.3916375 2,15.3153667 2,12 C2,8.68922234 3.47281829,5.61676443 5.96885102,3.54017812 L7.24796852,5.07766256 C5.20393339,6.77820732 4,9.28974232 4,12 C4,14.7140097 5.20729644,17.2286725 7.25618985,18.929169 L5.9788888,20.4681628 Z" id="Combined-Shape" fill="#335EEA" opacity="0.3"></path>
        <circle id="Oval" fill="#335EEA" cx="12" cy="12" r="2"></circle>
    </g>
</svg>

<svg width="24" height="24" viewBox="0 0 24 24" xmlns="http://www.w3.org/2000/svg"><g fill="none" fill-rule="evenodd"><path d="M0 0h24v24H0z"/><path d="M15.45 17.403l-1.272-1.543A4.987 4.987 0 0016 12a4.987 4.987 0 00-1.81-3.85l1.276-1.54A6.986 6.986 0 0118 12a6.987 6.987 0 01-2.55 5.403zm2.571 3.065l-1.277-1.539A8.978 8.978 0 0020 12a8.978 8.978 0 00-3.248-6.922l1.28-1.538A10.977 10.977 0 0122 12c0 3.315-1.477 6.392-3.979 8.468zM8.55 17.403A6.987 6.987 0 016 12c0-2.11.94-4.07 2.534-5.39L9.81 8.15A4.987 4.987 0 008 12c0 1.514.675 2.915 1.822 3.86l-1.273 1.543zm-2.57 3.065A10.977 10.977 0 012 12c0-3.31 1.473-6.383 3.969-8.46l1.279 1.538A8.978 8.978 0 004 12a8.978 8.978 0 003.256 6.93L5.98 20.467z" fill="#335EEA" opacity=".3"/><circle fill="#335EEA" cx="12" cy="12" r="2"/></g></svg>
